!!!COM: Beethoven
!!!OTL: 24 Variationen uber Venni Amore von V. Righini
!!!Variation: Variation 21 b
**function	**harm	**kern	**kern
*	*	*clefF4	*clefG2
*	*	*k[f#c#]	*k[f#c#]
*M2/4	*M2/4	*M2/4	*M2/4
*D:	*D:	*D:	*D:
=385	=385	=385	=385
2D	2V7	2r	(4a
.	.	.	[4gg)
=386	=386	=386	=386
2D	2I	(4D	(16ggLL]
.	.	.	16ff#
.	.	.	16ee
.	.	.	16ddJJ)
.	.	[4d)	4dd
=387	=387	=387	=387
*	*	*^	*
2D	2V7	(4AA	(16dLL]	2r
.	.	.	16c#	.
.	.	.	16B	.
.	.	.	16AJJ)	.
.	.	[4G)	4A	.
=388	=388	=388	=388	=388
2D	2Ib	(16GLL]	4FFF#	4d
.	.	16F#	.	.
.	.	16E	.	.
.	.	16DJJ)	.	.
.	.	(4D	(4FF#	[4dd
.	.	.	.	.
=389	=389	=389	=389	=389
*	*	*	*	*^
2D	2V7b	4C#)	4EE)	(16ddLL]	8g
.	.	.	.	16cc#	.
.	.	.	.	16b	8r
.	.	.	.	16aJJ)	.
*	*	*v	*v	*	*
.	.	(4CC#	[4a	[4gg
=390	=390	=390	=390	=390
2D	2I	4DD)	8a]	(16ggLL]
.	.	.	.	16ff#
.	.	.	8r	16ee
.	.	.	.	16ddJJ)
.	.	[4D	8f#	(16ddLL
.	.	.	.	16cc#
.	.	.	8r	16b
.	.	.	.	16aJJ)
=391	=391	=391	=391	=391
2D	2V	(16DLL]	4c# 4e	[4a
.	.	16C#	.	.
.	.	16BB	.	.
.	.	16AAJJ)	.	.
*	*	*	*v	*v
.	.	[4AA	(16aLL]
.	.	.	16g
.	.	.	16f#
.	.	.	16eJJ)
=392	=392	=392	=392
2T	2I	(16AALL]	4d
.	.	16GG	.
.	.	16FF#	.
.	.	16EEJJ)	.
.	.	4DD'	4r
*-	*-	*-	*-
